X:1
T:Title
%%score ( 1 2 3 ) { 4 | 5 }
L:1/8
Q:1/4=105
M:4/4
K:C
V:1 treble nm="Grand Piano, Staff 1"
V:2 treble 
V:3 treble 
V:4 treble nm="Choir Pad, Barragh, 88.88.88"
V:5 bass 
V:1
 [EA]2 [CE]2 [EA]2 [E^G]2 | [EA]2 [Dd][Ec] BA [E^G]2 | ^G-[DG] [CA]2 =GF E2 | z4 ^G2 z2 | %4
w: By~John~Chetham,~A~Book~of~Psalmody,~1718 * * *||||
 [B,E]2 [A,E]2 [EA]2 [E^G]2 | [EA]2 [Dd][Ec] BA [E^G]2 | [E^G]2 A-[FA] [=GB]2 [Gc]2 | z4 B2 z2 | %8
w: ||||
 [Gc]2 [Ge]2 [Gd]2 [Gc]2 | B-[FB] [EA]2 BA [E^G]2 | ^G-[DG] [CA]2 =GF E2 | z4 ^G2 z2 | z8 |] %13
w: |||||
V:2
 x8 | z4 F2 z2 | .E2 z2 D2 z2 | [FA]2 A2 z D [CA]2 | x8 | z4 F2 z2 | z2 .E2 z4 | dc c2 z F [Ec]2 | %8
 x8 | .G2 z2 F2 z2 | .E2 z2 D2 z2 | [FA]2 A2 z D [CA]2- | [CA]6 z2 |] %13
V:3
 x8 | x8 | x8 | z2 .E4 z2 | x8 | x8 | x8 | A2 .G4 z2 | x8 | x8 | x8 | z2 .E4 z2 | x8 |] %13
V:4
 C2 C2 C2 B,2 | C2[K:bass] A,2 D2 B,2 | B,2 A,2 B,2 C2 | A,2 C2 B,2 A,2 | B,2[K:treble] C2 C2 B,2 | %5
 C2 A,2 D2 B,2 | B,2 C2 D2 C2 | F2 E2 D2 C2 | G,2 C2 B,2 G,A, | B,2[K:treble] C2 DC B,2 | %10
 B,2[K:bass] A,2 B,2 C2 | A,B, C2 B,2 A,2- | A,6 z2 |] %13
V:5
 A,2 A,,B,, C,D, E,2 | A,G, F,2 D,2 E,2 | E,2 F,2 E,D, C,2 | D,2 E,2 E,2 A,,2 | %4
 ^G,,2 A,,B,, C,D, E,2 | A,G, F,2 D,2 E,2 | E,2 A,2 G,2 E,2 | F,2 G,2 G,,2 C,2 | C,2 C,2 G,2 E,F, | %9
 G,2 A,2 D,2 E,2 | E,2 F,E, D,2 C,2 | D,2 E,2 E,2 A,,2- | A,,6 z2 |] %13

